X:1
T:Go and Work!
T:Go and Work!
T: Ira Allen Sankey
T:Frances Jane (Fanny) Crosby, 1907
T:Public Domain Courtesy of the Cyber Hymnal™
T:Public Domain Courtesy of the Cyber Hymnal™
C:Ira Allen Sankey
Z:Public Domain
Z:Courtesy of the Cyber Hymnal™
%%score ( 1 2 ) ( 3 4 )
L:1/8
Q:1/4=100
M:3/4
K:C
V:1 treble 
V:2 treble 
V:3 bass 
V:4 bass 
V:1
 [CE]>[DF] | [EG]3 [EG] [^DB]>[DA] | ([EG]2 [CE]2) [CA]>[CA] | [CG]3 [CE] [DF]>[CE] | %4
w: 1.~Christ- ians,|wake, no long- er|sleep; * Shall we|rest while o- thers|
w: 2.~Do we|love the Sav- ior’s|name? * Can our|faith His prom- ise|
w: 3.~Do we|trust Him as we|ought? * Do we|live as He has|
w: 4.~There’s a|cross that we must|bear * If the|crown we hope to|
 [B,D]4 [CE]>[DF] | [EG]3 [EG] [^DB]>[DA] | ([Ec]2 G2) [FA]>[^DA] | [EG]3 [Gc] [Fc]>[FB] | [Ec]4 || %9
w: weep? Shall we|sit with fold- ed|hands * When the|Lord Him- self com-|mands?|
w: claim? Have we|pledged to Him our|all? * Shall we|not o- bey His|call?|
w: taught? Are we|His, and His a-|lone? * Let our|faith by works be|shown.|
w: wear: On- ward,|then, with vi- gor|new; * Time is|short, the days are|few.|
[M:4/4]"^Refrain" [EG]>[Ec] | B4- [FB]>[FG] [FB]>[Fd] | c4- [Ec]2 [EG]>[EG] | %12
w: |||
w: Go and|work! this hour be- gin;|* Go and seek|
w: |||
w: |||
 A4- [_EA]>[EA] [EB]>[Ec] | B4- [FB]2 [DB]>[Fd] | c4- [Ec][EG] [DF]>[^CE] | %15
w: |||
w: * the lost to win;|* From the dark|* a- bodes of sin,|
w: |||
w: |||
 A4- !fermata![^DA]2 [DA]>[DA] | [EG]2 [Gc]2 [Fc]2 [FB]2 | c4- !fermata![Ec]2 |] %18
w: |||
w: * To the feast,|* oh, bring them|in! *|
w: |||
w: |||
V:2
 x2 | x6 | x6 | x6 | x6 | x6 | x2 G2 x2 | x6 | x4 ||[M:4/4] x2 | F2 F>F x4 | EEF>F x4 | %12
 F2 F3/2 F/ x4 | DF F>F x4 | E2 E3/2 E/ x4 | ^D>F F>F x4 | x8 | EEF>F x2 |] %18
V:3
 [C,G,]>[C,G,] | [C,C]3 [C,G,] [C,^F,]>[C,F,] | [C,G,]4 F,>[F,A,] | [E,C]3 [C,G,] [B,,G,]>[C,G,] | %4
w: ~ ~|~ ~ ~ ~|~ ~ ~|~ ~ ~ ~|
 [G,,G,]4 [C,G,]>[C,G,] | [C,C]3 [C,G,] [C,^F,]>[C,F,] | ([C,G,]2 [E,C]2) [F,C]>[^F,C] | %7
w: ~ ~ ~|~ ~ ~ ~|~ * ~ ~|
 [G,C]3 [E,C] [D,A,]>G, | [C,G,]4 ||[M:4/4] z2 | z2 [G,D]>[G,D] [G,D]>[G,B,] [G,D]>[G,B,] | %11
w: ~ ~ ~ ~|~||Go and work! ~ ~ ~|
 CG, A,>A, [C,G,]2 [C,C]>[C,C] | [F,C]2 [F,C]>[F,C] [^F,C]>[F,C] [F,B,]>[F,A,] | %13
w: ~ this hour be- gin; ~ ~|Go and seek ~ ~ ~ ~|
 G,D D>D [G,D]2 z2 | z2 [C,G,]>[C,G,] [C,G,][^C,_B,] [D,A,]>[E,A,] | %15
w: the lost to~win; From the|dark ~ ~ ~ ~ a-|
 [F,A,]>[F,D] [F,D]>[F,D] !fermata![^F,C]2 [F,C]>[F,C] | [G,C]2 [E,C]2 [D,A,]2 G,2 | %17
w: bodes of sin ~ ~ ~ ~|~ ~ ~ oh,|
 G,G, A,>_A, !fermata![C,G,]2 |] %18
w: bring them~in! * * *|
V:4
 x2 | x6 | x4 F,3/2 x/ | x6 | x6 | x6 | x6 | x11/2 G,/ | x4 ||[M:4/4] x2 | x8 | C,4- x4 | x8 | %13
 G,4- x4 | x8 | x8 | x6 G,2 | C,4- x2 |] %18

